static/img/kroki/22d1000196e304e2558e97e83c57af4d.svg

<?xml version="1.0" encoding="us-ascii" standalone="no"?><svg xmlns="http://www.w3.org/2000/svg" xmlns:xlink="http://www.w3.org/1999/xlink" contentStyleType="text/css" height="252px" preserveAspectRatio="none" style="width:891px;height:252px;" version="1.1" viewBox="0 0 891 252" width="891px" zoomAndPan="magnify"><defs/><g><!--class aws_ecs_capacity_provider--><g id="elem_aws_ecs_capacity_provider"><rect codeLine="22" fill="#3D176E" height="39.7891" id="aws_ecs_capacity_provider" rx="2.5" ry="2.5" style="stroke:#000D19;stroke-width:0.5;" width="265" x="7.73" y="206.58"/><ellipse cx="22.73" cy="226.4745" fill="#ADD1B2" rx="11" ry="11" style="stroke:#181818;stroke-width:1.0;"/><path d="M25.6988,232.1152 Q25.1206,232.412 24.48,232.5527 Q23.8394,232.7089 23.1363,232.7089 Q20.6363,232.7089 19.3081,231.0683 Q17.9956,229.412 17.9956,226.287 Q17.9956,223.162 19.3081,221.5058 Q20.6363,219.8495 23.1363,219.8495 Q23.8394,219.8495 24.48,220.0058 Q25.1363,220.162 25.6988,220.4589 L25.6988,223.1777 Q25.0738,222.5995 24.48,222.3339 Q23.8863,222.0527 23.2613,222.0527 Q21.9175,222.0527 21.23,223.1308 Q20.5425,224.1933 20.5425,226.287 Q20.5425,228.3808 21.23,229.4589 Q21.9175,230.5214 23.2613,230.5214 Q23.8863,230.5214 24.48,230.2558 Q25.0738,229.9745 25.6988,229.3964 L25.6988,232.1152 Z " fill="#000000"/><text fill="#D9B8FF" font-family="Helvetica" font-size="17" lengthAdjust="spacing" textLength="223" x="41.73" y="232.3598">aws_ecs_capacity_provider</text></g><!--class aws_ecs_cluster--><g id="elem_aws_ecs_cluster"><rect codeLine="24" fill="#3D176E" height="39.7891" id="aws_ecs_cluster" rx="2.5" ry="2.5" style="stroke:#000D19;stroke-width:0.5;" width="175" x="317.73" y="7"/><ellipse cx="332.73" cy="26.8945" fill="#ADD1B2" rx="11" ry="11" style="stroke:#181818;stroke-width:1.0;"/><path d="M335.6988,32.5352 Q335.1206,32.832 334.48,32.9727 Q333.8394,33.1289 333.1363,33.1289 Q330.6363,33.1289 329.3081,31.4883 Q327.9956,29.832 327.9956,26.707 Q327.9956,23.582 329.3081,21.9258 Q330.6363,20.2695 333.1363,20.2695 Q333.8394,20.2695 334.48,20.4258 Q335.1363,20.582 335.6988,20.8789 L335.6988,23.5977 Q335.0738,23.0195 334.48,22.7539 Q333.8863,22.4727 333.2613,22.4727 Q331.9175,22.4727 331.23,23.5508 Q330.5425,24.6133 330.5425,26.707 Q330.5425,28.8008 331.23,29.8789 Q331.9175,30.9414 333.2613,30.9414 Q333.8863,30.9414 334.48,30.6758 Q335.0738,30.3945 335.6988,29.8164 L335.6988,32.5352 Z " fill="#000000"/><text fill="#D9B8FF" font-family="Helvetica" font-size="17" lengthAdjust="spacing" textLength="133" x="351.73" y="32.7798">aws_ecs_cluster</text></g><!--class aws_ecs_container_instance--><g id="elem_aws_ecs_container_instance"><rect codeLine="26" fill="#3D176E" height="39.7891" id="aws_ecs_container_instance" rx="2.5" ry="2.5" style="stroke:#000D19;stroke-width:0.5;" width="277" x="319.73" y="206.58"/><ellipse cx="334.73" cy="226.4745" fill="#ADD1B2" rx="11" ry="11" style="stroke:#181818;stroke-width:1.0;"/><path d="M337.6988,232.1152 Q337.1206,232.412 336.48,232.5527 Q335.8394,232.7089 335.1363,232.7089 Q332.6363,232.7089 331.3081,231.0683 Q329.9956,229.412 329.9956,226.287 Q329.9956,223.162 331.3081,221.5058 Q332.6363,219.8495 335.1363,219.8495 Q335.8394,219.8495 336.48,220.0058 Q337.1363,220.162 337.6988,220.4589 L337.6988,223.1777 Q337.0738,222.5995 336.48,222.3339 Q335.8863,222.0527 335.2613,222.0527 Q333.9175,222.0527 333.23,223.1308 Q332.5425,224.1933 332.5425,226.287 Q332.5425,228.3808 333.23,229.4589 Q333.9175,230.5214 335.2613,230.5214 Q335.8863,230.5214 336.48,230.2558 Q337.0738,229.9745 337.6988,229.3964 L337.6988,232.1152 Z " fill="#000000"/><text fill="#D9B8FF" font-family="Helvetica" font-size="17" lengthAdjust="spacing" textLength="235" x="353.73" y="232.3598">aws_ecs_container_instance</text></g><!--class aws_ecs_service--><g id="elem_aws_ecs_service"><rect codeLine="28" fill="#3D176E" height="39.7891" id="aws_ecs_service" rx="2.5" ry="2.5" style="stroke:#000D19;stroke-width:0.5;" width="177" x="51.73" y="106.79"/><ellipse cx="66.73" cy="126.6845" fill="#ADD1B2" rx="11" ry="11" style="stroke:#181818;stroke-width:1.0;"/><path d="M69.6988,132.3252 Q69.1206,132.622 68.48,132.7627 Q67.8394,132.9189 67.1363,132.9189 Q64.6363,132.9189 63.3081,131.2783 Q61.9956,129.622 61.9956,126.497 Q61.9956,123.372 63.3081,121.7158 Q64.6363,120.0595 67.1363,120.0595 Q67.8394,120.0595 68.48,120.2158 Q69.1363,120.372 69.6988,120.6689 L69.6988,123.3877 Q69.0738,122.8095 68.48,122.5439 Q67.8863,122.2627 67.2613,122.2627 Q65.9175,122.2627 65.23,123.3408 Q64.5425,124.4033 64.5425,126.497 Q64.5425,128.5908 65.23,129.6689 Q65.9175,130.7314 67.2613,130.7314 Q67.8863,130.7314 68.48,130.4658 Q69.0738,130.1845 69.6988,129.6064 L69.6988,132.3252 Z " fill="#000000"/><text fill="#D9B8FF" font-family="Helvetica" font-size="17" lengthAdjust="spacing" textLength="135" x="85.73" y="132.5698">aws_ecs_service</text></g><!--class aws_ecs_task--><g id="elem_aws_ecs_task"><rect codeLine="30" fill="#3D176E" height="39.7891" id="aws_ecs_task" rx="2.5" ry="2.5" style="stroke:#000D19;stroke-width:0.5;" width="154" x="263.23" y="106.79"/><ellipse cx="278.23" cy="126.6845" fill="#ADD1B2" rx="11" ry="11" style="stroke:#181818;stroke-width:1.0;"/><path d="M281.1988,132.3252 Q280.6206,132.622 279.98,132.7627 Q279.3394,132.9189 278.6363,132.9189 Q276.1363,132.9189 274.8081,131.2783 Q273.4956,129.622 273.4956,126.497 Q273.4956,123.372 274.8081,121.7158 Q276.1363,120.0595 278.6363,120.0595 Q279.3394,120.0595 279.98,120.2158 Q280.6363,120.372 281.1988,120.6689 L281.1988,123.3877 Q280.5738,122.8095 279.98,122.5439 Q279.3863,122.2627 278.7613,122.2627 Q277.4175,122.2627 276.73,123.3408 Q276.0425,124.4033 276.0425,126.497 Q276.0425,128.5908 276.73,129.6689 Q277.4175,130.7314 278.7613,130.7314 Q279.3863,130.7314 279.98,130.4658 Q280.5738,130.1845 281.1988,129.6064 L281.1988,132.3252 Z " fill="#000000"/><text fill="#D9B8FF" font-family="Helvetica" font-size="17" lengthAdjust="spacing" textLength="112" x="297.23" y="132.5698">aws_ecs_task</text></g><!--class aws_kms_key--><g id="elem_aws_kms_key"><rect codeLine="32" fill="#3D176E" height="39.7891" id="aws_kms_key" rx="2.5" ry="2.5" style="stroke:#000D19;stroke-width:0.5;" width="158" x="523.23" y="106.79"/><ellipse cx="538.23" cy="126.6845" fill="#ADD1B2" rx="11" ry="11" style="stroke:#181818;stroke-width:1.0;"/><path d="M541.1988,132.3252 Q540.6206,132.622 539.98,132.7627 Q539.3394,132.9189 538.6363,132.9189 Q536.1363,132.9189 534.8081,131.2783 Q533.4956,129.622 533.4956,126.497 Q533.4956,123.372 534.8081,121.7158 Q536.1363,120.0595 538.6363,120.0595 Q539.3394,120.0595 539.98,120.2158 Q540.6363,120.372 541.1988,120.6689 L541.1988,123.3877 Q540.5738,122.8095 539.98,122.5439 Q539.3863,122.2627 538.7613,122.2627 Q537.4175,122.2627 536.73,123.3408 Q536.0425,124.4033 536.0425,126.497 Q536.0425,128.5908 536.73,129.6689 Q537.4175,130.7314 538.7613,130.7314 Q539.3863,130.7314 539.98,130.4658 Q540.5738,130.1845 541.1988,129.6064 L541.1988,132.3252 Z " fill="#000000"/><text fill="#D9B8FF" font-family="Helvetica" font-size="17" lengthAdjust="spacing" textLength="116" x="557.23" y="132.5698">aws_kms_key</text></g><!--class aws_s3_bucket--><g id="elem_aws_s3_bucket"><rect codeLine="34" fill="#3D176E" height="39.7891" id="aws_s3_bucket" rx="2.5" ry="2.5" style="stroke:#000D19;stroke-width:0.5;" width="168" x="716.23" y="106.79"/><ellipse cx="731.23" cy="126.6845" fill="#ADD1B2" rx="11" ry="11" style="stroke:#181818;stroke-width:1.0;"/><path d="M734.1988,132.3252 Q733.6206,132.622 732.98,132.7627 Q732.3394,132.9189 731.6363,132.9189 Q729.1363,132.9189 727.8081,131.2783 Q726.4956,129.622 726.4956,126.497 Q726.4956,123.372 727.8081,121.7158 Q729.1363,120.0595 731.6363,120.0595 Q732.3394,120.0595 732.98,120.2158 Q733.6363,120.372 734.1988,120.6689 L734.1988,123.3877 Q733.5738,122.8095 732.98,122.5439 Q732.3863,122.2627 731.7613,122.2627 Q730.4175,122.2627 729.73,123.3408 Q729.0425,124.4033 729.0425,126.497 Q729.0425,128.5908 729.73,129.6689 Q730.4175,130.7314 731.7613,130.7314 Q732.3863,130.7314 732.98,130.4658 Q733.5738,130.1845 734.1988,129.6064 L734.1988,132.3252 Z " fill="#000000"/><text fill="#D9B8FF" font-family="Helvetica" font-size="17" lengthAdjust="spacing" textLength="126" x="750.23" y="132.5698">aws_s3_bucket</text></g><!--link aws_ecs_cluster to aws_ecs_capacity_provider--><g id="link_aws_ecs_cluster_aws_ecs_capacity_provider"><path codeLine="36" d="M317.5,34.1 C219.27,43.08 69.19,63.61 34.23,106.79 C6,141.66 56.24,180.05 96.76,203.46 " fill="none" id="aws_ecs_cluster-to-aws_ecs_capacity_provider" style="stroke:#1A83AF;stroke-width:2.0;"/><polygon fill="#1A83AF" points="100.64,206.24,94.7963,198.3121,96.2944,203.767,90.8395,205.2651,100.64,206.24" style="stroke:#1A83AF;stroke-width:2.0;"/></g><!--link aws_ecs_cluster to aws_ecs_container_instance--><g id="link_aws_ecs_cluster_aws_ecs_container_instance"><path codeLine="37" d="M413.57,47.04 C420.19,62.82 429.29,85.93 435.23,106.79 C444.29,138.61 450.91,176.25 454.67,200.47 " fill="none" id="aws_ecs_cluster-to-aws_ecs_container_instance" style="stroke:#1A83AF;stroke-width:2.0;"/><polygon fill="#1A83AF" points="455.56,205.33,458.1553,195.8292,454.8051,200.3873,450.247,197.0371,455.56,205.33" style="stroke:#1A83AF;stroke-width:2.0;"/></g><!--link aws_ecs_cluster to aws_ecs_service--><g id="link_aws_ecs_cluster_aws_ecs_service"><path codeLine="38" d="M352.87,47.22 C308.23,63.69 244.14,87.34 198.01,104.36 " fill="none" id="aws_ecs_cluster-to-aws_ecs_service" style="stroke:#1A83AF;stroke-width:2.0;"/><polygon fill="#1A83AF" points="193.48,106.41,203.3075,107.0576,198.1727,104.6841,200.5461,99.5493,193.48,106.41" style="stroke:#1A83AF;stroke-width:2.0;"/></g><!--link aws_ecs_cluster to aws_ecs_task--><g id="link_aws_ecs_cluster_aws_ecs_task"><path codeLine="39" d="M392.39,47.22 C381.97,62.89 367.24,85.05 356.09,101.83 " fill="none" id="aws_ecs_cluster-to-aws_ecs_task" style="stroke:#1A83AF;stroke-width:2.0;"/><polygon fill="#1A83AF" points="353.05,105.41,361.3705,100.1403,355.8235,101.2497,354.7141,95.7027,353.05,105.41" style="stroke:#1A83AF;stroke-width:2.0;"/></g><!--link aws_ecs_cluster to aws_kms_key--><g id="link_aws_ecs_cluster_aws_kms_key"><path codeLine="40" d="M444.15,47.22 C477.07,63.56 524.21,86.96 558.44,103.95 " fill="none" id="aws_ecs_cluster-to-aws_kms_key" style="stroke:#1A83AF;stroke-width:2.0;"/><polygon fill="#1A83AF" points="562.39,106.41,556.1193,98.8154,557.915,104.1797,552.5507,105.9754,562.39,106.41" style="stroke:#1A83AF;stroke-width:2.0;"/></g><!--link aws_ecs_cluster to aws_s3_bucket--><g id="link_aws_ecs_cluster_aws_s3_bucket"><path codeLine="41" d="M483.27,47.22 C550.52,63.87 647.36,87.84 716.27,104.9 " fill="none" id="aws_ecs_cluster-to-aws_s3_bucket" style="stroke:#1A83AF;stroke-width:2.0;"/><polygon fill="#1A83AF" points="721.02,106.32,713.2421,100.2781,716.1659,105.1208,711.3233,108.0446,721.02,106.32" style="stroke:#1A83AF;stroke-width:2.0;"/></g><!--link aws_ecs_service to aws_ecs_capacity_provider--><g id="link_aws_ecs_service_aws_ecs_capacity_provider"><path codeLine="42" d="M140.23,147.01 C140.23,162.28 140.23,183.71 140.23,200.32 " fill="none" id="aws_ecs_service-to-aws_ecs_capacity_provider" style="stroke:#1A83AF;stroke-width:2.0;"/><polygon fill="#1A83AF" points="140.23,205.2,144.23,196.2,140.23,200.2,136.23,196.2,140.23,205.2" style="stroke:#1A83AF;stroke-width:2.0;"/></g><!--link aws_ecs_task to aws_ecs_capacity_provider--><g id="link_aws_ecs_task_aws_ecs_capacity_provider"><path codeLine="43" d="M300.72,147.01 C267.3,163.35 219.44,186.75 184.69,203.74 " fill="none" id="aws_ecs_task-to-aws_ecs_capacity_provider" style="stroke:#1A83AF;stroke-width:2.0;"/><polygon fill="#1A83AF" points="180.66,206.2,190.5018,205.8283,185.1492,203.9983,186.9791,198.6456,180.66,206.2" style="stroke:#1A83AF;stroke-width:2.0;"/></g><!--link aws_ecs_task to aws_ecs_container_instance--><g id="link_aws_ecs_task_aws_ecs_container_instance"><path codeLine="44" d="M363.54,147.01 C382.78,162.94 410.11,185.6 430.47,202.47 " fill="none" id="aws_ecs_task-to-aws_ecs_container_instance" style="stroke:#1A83AF;stroke-width:2.0;"/><polygon fill="#1A83AF" points="433.97,206.2,429.5941,197.3767,430.1207,203.0089,424.4884,203.5355,433.97,206.2" style="stroke:#1A83AF;stroke-width:2.0;"/></g><!--SRC=[hP91Qy9048Nl_ee5pu9fQDLB8HMalKYflPKI9hiJNPBiXjcDafR-zoPg9Tr4Ow67N6Q-cNdlRJPI8CCijoNBC8kGpC0aKkL0aB60IE_cEjN4Xd4CiJzncmkjR2-mX0pP8wPRj9A3Ixnk94yK6iDk6gq7uCcQTA74ORqbKAPgeR8DQfw2CO6r9AF2OaECc4NJE7P9T-dG5zxa3bkO9e5qHCRZiV1cBj9xwgBl4x6I7yYyPcXBRR4bitLYJrrKMHCDaIsZF_sp6fz12AdMxBPHUpbe8eNqgxxQWD2xceuXDSqpnYAXjcMEyvOhd4r5FEc4dyx1l4wEmSw4o4t88GSkRHdcfBVLZqpiS_3bCcbHx-tgLFP1Lbv2gOm5nR43CaXRsTcnO1Add6JLXwLJDNuO5Jn1kw-xkaPlGo-O-i7YVNH_tjYLOor7ryqTJLu7rxxxoMCK_U0fdO4R-H-JsR_7_ysqelm6]--></g></svg>

<svg xmlns="http://www.w3.org/2000/svg" width="891" height="252" preserveAspectRatio="none" style="width:891px;height:252px"><rect width="265" height="39.789" x="7.73" y="206.58" fill="#3D176E" rx="2.5" ry="2.5" style="stroke:#000d19;stroke-width:.5"/><circle cx="22.73" cy="226.475" r="11" fill="#ADD1B2" style="stroke:#181818;stroke-width:1"/><path d="M25.699 232.115q-.578.297-1.219.438-.64.156-1.344.156-2.5 0-3.828-1.64-1.312-1.657-1.312-4.782t1.312-4.781q1.328-1.656 3.828-1.656.703 0 1.344.156.656.156 1.219.453v2.719q-.625-.578-1.219-.844-.594-.281-1.219-.281-1.343 0-2.031 1.078-.688 1.062-.688 3.156 0 2.094.688 3.172.688 1.062 2.031 1.062.625 0 1.219-.265.594-.281 1.219-.86v2.72Z"/><text x="41.73" y="232.36" fill="#D9B8FF" font-family="Helvetica" font-size="17" textLength="223">aws_ecs_capacity_provider</text><rect width="175" height="39.789" x="317.73" y="7" fill="#3D176E" rx="2.5" ry="2.5" style="stroke:#000d19;stroke-width:.5"/><circle cx="332.73" cy="26.895" r="11" fill="#ADD1B2" style="stroke:#181818;stroke-width:1"/><path d="M335.699 32.535q-.578.297-1.219.438-.64.156-1.344.156-2.5 0-3.828-1.64-1.312-1.657-1.312-4.782t1.312-4.781q1.328-1.656 3.828-1.656.703 0 1.344.156.656.156 1.219.453v2.719q-.625-.578-1.219-.844-.594-.281-1.219-.281-1.344 0-2.031 1.078-.688 1.062-.688 3.156 0 2.094.688 3.172.688 1.062 2.031 1.062.625 0 1.219-.265.594-.281 1.219-.86v2.72Z"/><text x="351.73" y="32.78" fill="#D9B8FF" font-family="Helvetica" font-size="17" textLength="133">aws_ecs_cluster</text><rect width="277" height="39.789" x="319.73" y="206.58" fill="#3D176E" rx="2.5" ry="2.5" style="stroke:#000d19;stroke-width:.5"/><circle cx="334.73" cy="226.475" r="11" fill="#ADD1B2" style="stroke:#181818;stroke-width:1"/><path d="M337.699 232.115q-.578.297-1.219.438-.64.156-1.344.156-2.5 0-3.828-1.64-1.312-1.657-1.312-4.782t1.312-4.781q1.328-1.656 3.828-1.656.703 0 1.344.156.656.156 1.219.453v2.719q-.625-.578-1.219-.844-.594-.281-1.219-.281-1.344 0-2.031 1.078-.688 1.062-.688 3.156 0 2.094.688 3.172.688 1.062 2.031 1.062.625 0 1.219-.265.594-.281 1.219-.86v2.72Z"/><text x="353.73" y="232.36" fill="#D9B8FF" font-family="Helvetica" font-size="17" textLength="235">aws_ecs_container_instance</text><rect width="177" height="39.789" x="51.73" y="106.79" fill="#3D176E" rx="2.5" ry="2.5" style="stroke:#000d19;stroke-width:.5"/><circle cx="66.73" cy="126.684" r="11" fill="#ADD1B2" style="stroke:#181818;stroke-width:1"/><path d="M69.699 132.325q-.578.297-1.219.438-.64.156-1.344.156-2.5 0-3.828-1.64-1.312-1.657-1.312-4.782t1.312-4.781q1.328-1.656 3.828-1.656.703 0 1.344.156.656.156 1.219.453v2.719q-.625-.579-1.219-.844-.594-.281-1.219-.281-1.343 0-2.031 1.078-.688 1.062-.688 3.156 0 2.094.688 3.172.688 1.062 2.031 1.062.625 0 1.219-.265.594-.281 1.219-.86v2.72Z"/><text x="85.73" y="132.57" fill="#D9B8FF" font-family="Helvetica" font-size="17" textLength="135">aws_ecs_service</text><rect width="154" height="39.789" x="263.23" y="106.79" fill="#3D176E" rx="2.5" ry="2.5" style="stroke:#000d19;stroke-width:.5"/><circle cx="278.23" cy="126.684" r="11" fill="#ADD1B2" style="stroke:#181818;stroke-width:1"/><path d="M281.199 132.325q-.578.297-1.219.438-.64.156-1.344.156-2.5 0-3.828-1.64-1.312-1.657-1.312-4.782t1.312-4.781q1.328-1.656 3.828-1.656.703 0 1.344.156.656.156 1.219.453v2.719q-.625-.579-1.219-.844-.594-.281-1.219-.281-1.344 0-2.031 1.078-.688 1.062-.688 3.156 0 2.094.688 3.172.688 1.062 2.031 1.062.625 0 1.219-.265.594-.281 1.219-.86v2.72Z"/><text x="297.23" y="132.57" fill="#D9B8FF" font-family="Helvetica" font-size="17" textLength="112">aws_ecs_task</text><rect width="158" height="39.789" x="523.23" y="106.79" fill="#3D176E" rx="2.5" ry="2.5" style="stroke:#000d19;stroke-width:.5"/><circle cx="538.23" cy="126.684" r="11" fill="#ADD1B2" style="stroke:#181818;stroke-width:1"/><path d="M541.199 132.325q-.578.297-1.219.438-.64.156-1.344.156-2.5 0-3.828-1.64-1.312-1.657-1.312-4.782t1.312-4.781q1.328-1.656 3.828-1.656.703 0 1.344.156.656.156 1.219.453v2.719q-.625-.579-1.219-.844-.594-.281-1.219-.281-1.343 0-2.031 1.078-.688 1.062-.688 3.156 0 2.094.688 3.172.688 1.062 2.031 1.062.625 0 1.219-.265.594-.281 1.219-.86v2.72Z"/><text x="557.23" y="132.57" fill="#D9B8FF" font-family="Helvetica" font-size="17" textLength="116">aws_kms_key</text><rect width="168" height="39.789" x="716.23" y="106.79" fill="#3D176E" rx="2.5" ry="2.5" style="stroke:#000d19;stroke-width:.5"/><circle cx="731.23" cy="126.684" r="11" fill="#ADD1B2" style="stroke:#181818;stroke-width:1"/><path d="M734.199 132.325q-.578.297-1.219.438-.64.156-1.344.156-2.5 0-3.828-1.64-1.312-1.657-1.312-4.782t1.312-4.781q1.328-1.656 3.828-1.656.703 0 1.344.156.656.156 1.219.453v2.719q-.625-.579-1.219-.844-.594-.281-1.219-.281-1.343 0-2.031 1.078-.688 1.062-.688 3.156 0 2.094.688 3.172.688 1.062 2.031 1.062.625 0 1.219-.265.594-.281 1.219-.86v2.72Z"/><text x="750.23" y="132.57" fill="#D9B8FF" font-family="Helvetica" font-size="17" textLength="126">aws_s3_bucket</text><path fill="none" d="M317.5 34.1c-98.23 8.98-248.31 29.51-283.27 72.69C6 141.66 56.24 180.05 96.76 203.46" style="stroke:#1a83af;stroke-width:2"/><path fill="#1A83AF" d="m100.64 206.24-5.844-7.928 1.498 5.455-5.454 1.498 9.8.975z" style="stroke:#1a83af;stroke-width:2"/><path fill="none" d="M413.57 47.04c6.62 15.78 15.72 38.89 21.66 59.75 9.06 31.82 15.68 69.46 19.44 93.68" style="stroke:#1a83af;stroke-width:2"/><path fill="#1A83AF" d="m455.56 205.33 2.595-9.5-3.35 4.557-4.558-3.35 5.313 8.293z" style="stroke:#1a83af;stroke-width:2"/><path fill="none" d="M352.87 47.22c-44.64 16.47-108.73 40.12-154.86 57.14" style="stroke:#1a83af;stroke-width:2"/><path fill="#1A83AF" d="m193.48 106.41 9.828.648-5.135-2.374 2.373-5.135-7.066 6.861z" style="stroke:#1a83af;stroke-width:2"/><path fill="none" d="M392.39 47.22c-10.42 15.67-25.15 37.83-36.3 54.61" style="stroke:#1a83af;stroke-width:2"/><path fill="#1A83AF" d="m353.05 105.41 8.32-5.27-5.546 1.11-1.11-5.547-1.664 9.707z" style="stroke:#1a83af;stroke-width:2"/><path fill="none" d="m444.15 47.22 114.29 56.73" style="stroke:#1a83af;stroke-width:2"/><path fill="#1A83AF" d="m562.39 106.41-6.27-7.595 1.795 5.365-5.364 1.795 9.839.435z" style="stroke:#1a83af;stroke-width:2"/><path fill="none" d="M483.27 47.22c67.25 16.65 164.09 40.62 233 57.68" style="stroke:#1a83af;stroke-width:2"/><path fill="#1A83AF" d="m721.02 106.32-7.778-6.042 2.924 4.843-4.843 2.924 9.697-1.725z" style="stroke:#1a83af;stroke-width:2"/><path fill="none" d="M140.23 147.01v53.31" style="stroke:#1a83af;stroke-width:2"/><path fill="#1A83AF" d="m140.23 205.2 4-9-4 4-4-4 4 9z" style="stroke:#1a83af;stroke-width:2"/><path fill="none" d="m300.72 147.01-116.03 56.73" style="stroke:#1a83af;stroke-width:2"/><path fill="#1A83AF" d="m180.66 206.2 9.842-.372-5.353-1.83 1.83-5.352-6.319 7.554z" style="stroke:#1a83af;stroke-width:2"/><path fill="none" d="M363.54 147.01c19.24 15.93 46.57 38.59 66.93 55.46" style="stroke:#1a83af;stroke-width:2"/><path fill="#1A83AF" d="m433.97 206.2-4.376-8.823.527 5.632-5.633.527 9.482 2.664z" style="stroke:#1a83af;stroke-width:2"/></svg>
